X: 199
T: Dui Hua
L: 1/16
M: 2/4
K: G
d2> g2 e d c2 [I:setbarnb 1]| 
d e d cA4 | 
d2> g2 e d c2 | 
d e d cA4 | 
d B d d G B A2 | 
d B d d G B A2 | 
d B d d G B A2 | 
d2 F E d2 F E | 
G E d2 B A G2 | 
A B G ED4 | 
E A G Ed4 | 
d g e d g e d2 | 
d g e d g e d2 | 
B d B d G E D2 | 
B2 A G A B G E | 
D8 |]

@@@ Tune index: 9073
